static/img/kroki/a70039554c75bb135004875e8c1ec77f.svg

<?xml version="1.0" encoding="us-ascii" standalone="no"?><svg xmlns="http://www.w3.org/2000/svg" xmlns:xlink="http://www.w3.org/1999/xlink" contentStyleType="text/css" height="252px" preserveAspectRatio="none" style="width:340px;height:252px;" version="1.1" viewBox="0 0 340 252" width="340px" zoomAndPan="magnify"><defs/><g><!--class aws_api_gateway_domain_name--><g id="elem_aws_api_gateway_domain_name"><rect codeLine="22" fill="#3D176E" height="39.7891" id="aws_api_gateway_domain_name" rx="2.5" ry="2.5" style="stroke:#000D19;stroke-width:0.5;" width="319" x="10.5" y="7"/><ellipse cx="25.5" cy="26.8945" fill="#ADD1B2" rx="11" ry="11" style="stroke:#181818;stroke-width:1.0;"/><path d="M28.4688,32.5352 Q27.8906,32.832 27.25,32.9727 Q26.6094,33.1289 25.9063,33.1289 Q23.4063,33.1289 22.0781,31.4883 Q20.7656,29.832 20.7656,26.707 Q20.7656,23.582 22.0781,21.9258 Q23.4063,20.2695 25.9063,20.2695 Q26.6094,20.2695 27.25,20.4258 Q27.9063,20.582 28.4688,20.8789 L28.4688,23.5977 Q27.8438,23.0195 27.25,22.7539 Q26.6563,22.4727 26.0313,22.4727 Q24.6875,22.4727 24,23.5508 Q23.3125,24.6133 23.3125,26.707 Q23.3125,28.8008 24,29.8789 Q24.6875,30.9414 26.0313,30.9414 Q26.6563,30.9414 27.25,30.6758 Q27.8438,30.3945 28.4688,29.8164 L28.4688,32.5352 Z " fill="#000000"/><text fill="#D9B8FF" font-family="Helvetica" font-size="17" lengthAdjust="spacing" textLength="277" x="44.5" y="32.7798">aws_api_gateway_domain_name</text></g><!--class aws_route53_resource_record_set--><g id="elem_aws_route53_resource_record_set"><rect codeLine="24" fill="#3D176E" height="39.7891" id="aws_route53_resource_record_set" rx="2.5" ry="2.5" style="stroke:#000D19;stroke-width:0.5;" width="326" x="7" y="206.58"/><ellipse cx="22" cy="226.4745" fill="#ADD1B2" rx="11" ry="11" style="stroke:#181818;stroke-width:1.0;"/><path d="M24.9688,232.1152 Q24.3906,232.412 23.75,232.5527 Q23.1094,232.7089 22.4063,232.7089 Q19.9063,232.7089 18.5781,231.0683 Q17.2656,229.412 17.2656,226.287 Q17.2656,223.162 18.5781,221.5058 Q19.9063,219.8495 22.4063,219.8495 Q23.1094,219.8495 23.75,220.0058 Q24.4063,220.162 24.9688,220.4589 L24.9688,223.1777 Q24.3438,222.5995 23.75,222.3339 Q23.1563,222.0527 22.5313,222.0527 Q21.1875,222.0527 20.5,223.1308 Q19.8125,224.1933 19.8125,226.287 Q19.8125,228.3808 20.5,229.4589 Q21.1875,230.5214 22.5313,230.5214 Q23.1563,230.5214 23.75,230.2558 Q24.3438,229.9745 24.9688,229.3964 L24.9688,232.1152 Z " fill="#000000"/><text fill="#D9B8FF" font-family="Helvetica" font-size="17" lengthAdjust="spacing" textLength="284" x="41" y="232.3598">aws_route53_resource_record_set</text></g><!--class aws_route53_zone--><g id="elem_aws_route53_zone"><rect codeLine="26" fill="#3D176E" height="39.7891" id="aws_route53_zone" rx="2.5" ry="2.5" style="stroke:#000D19;stroke-width:0.5;" width="199" x="70.5" y="106.79"/><ellipse cx="85.5" cy="126.6845" fill="#ADD1B2" rx="11" ry="11" style="stroke:#181818;stroke-width:1.0;"/><path d="M88.4688,132.3252 Q87.8906,132.622 87.25,132.7627 Q86.6094,132.9189 85.9063,132.9189 Q83.4063,132.9189 82.0781,131.2783 Q80.7656,129.622 80.7656,126.497 Q80.7656,123.372 82.0781,121.7158 Q83.4063,120.0595 85.9063,120.0595 Q86.6094,120.0595 87.25,120.2158 Q87.9063,120.372 88.4688,120.6689 L88.4688,123.3877 Q87.8438,122.8095 87.25,122.5439 Q86.6563,122.2627 86.0313,122.2627 Q84.6875,122.2627 84,123.3408 Q83.3125,124.4033 83.3125,126.497 Q83.3125,128.5908 84,129.6689 Q84.6875,130.7314 86.0313,130.7314 Q86.6563,130.7314 87.25,130.4658 Q87.8438,130.1845 88.4688,129.6064 L88.4688,132.3252 Z " fill="#000000"/><text fill="#D9B8FF" font-family="Helvetica" font-size="17" lengthAdjust="spacing" textLength="157" x="104.5" y="132.5698">aws_route53_zone</text></g><!--link aws_api_gateway_domain_name to aws_route53_zone--><g id="link_aws_api_gateway_domain_name_aws_route53_zone"><path codeLine="28" d="M170,47.22 C170,62.49 170,83.92 170,100.53 " fill="none" id="aws_api_gateway_domain_name-to-aws_route53_zone" style="stroke:#1A83AF;stroke-width:2.0;"/><polygon fill="#1A83AF" points="170,105.41,174,96.41,170,100.41,166,96.41,170,105.41" style="stroke:#1A83AF;stroke-width:2.0;"/></g><!--link aws_route53_zone to aws_route53_resource_record_set--><g id="link_aws_route53_zone_aws_route53_resource_record_set"><path codeLine="29" d="M170,147.01 C170,162.28 170,183.71 170,200.32 " fill="none" id="aws_route53_zone-to-aws_route53_resource_record_set" style="stroke:#1A83AF;stroke-width:2.0;"/><polygon fill="#1A83AF" points="170,205.2,174,196.2,170,200.2,166,196.2,170,205.2" style="stroke:#1A83AF;stroke-width:2.0;"/></g><!--SRC=[XP1DQy9048Rl_ee5pu9fiEgba0QalKYflPKInkoiBYQxONPiqDB_tgIsPPirUbjcddq_Pgib2YmhFeWIopMI6xYTDXKGb28XidLg2qjYg1IeUDfTBgpXgy0IIXGFMBmZwnownCjMvpk3peaRRtKF-Mv3Tc_aIPu9Z6jMQDYZqWASIvX9h_UCNXWvNy-Kwf9TqM4ie-aj1fWbYVI3ZCTZ6Ssxo5MhYxt_Y9K-eeZyeoqjOn0piFYcBgPi2IzaKFHttvln2QJKPYCctkpvb8aCqh_vQWlIrYsje72-ZMCaj7oeC0rQuNmcrVGi_DW7v-tb1DGkWqfd6s2iuP19Mu8scMcxV0m-FQgHO9p46Q6pUygnUUJDtJA7t4CUhJc9N38PlGwZP1OdYxVHNV1x4CZrucTYVG40]--></g></svg>

<svg xmlns="http://www.w3.org/2000/svg" width="340" height="252" preserveAspectRatio="none" style="width:340px;height:252px"><rect width="319" height="39.789" x="10.5" y="7" fill="#3D176E" rx="2.5" ry="2.5" style="stroke:#000d19;stroke-width:.5"/><circle cx="25.5" cy="26.895" r="11" fill="#ADD1B2" style="stroke:#181818;stroke-width:1"/><path d="M28.469 32.535q-.578.297-1.219.438-.64.156-1.344.156-2.5 0-3.828-1.64-1.312-1.657-1.312-4.782t1.312-4.781q1.328-1.656 3.828-1.656.703 0 1.344.156.656.156 1.219.453v2.719q-.625-.578-1.219-.844-.594-.281-1.219-.281-1.343 0-2.031 1.078-.688 1.062-.688 3.156 0 2.094.688 3.172.688 1.062 2.031 1.062.625 0 1.219-.265.594-.281 1.219-.86v2.72Z"/><text x="44.5" y="32.78" fill="#D9B8FF" font-family="Helvetica" font-size="17" textLength="277">aws_api_gateway_domain_name</text><rect width="326" height="39.789" x="7" y="206.58" fill="#3D176E" rx="2.5" ry="2.5" style="stroke:#000d19;stroke-width:.5"/><circle cx="22" cy="226.475" r="11" fill="#ADD1B2" style="stroke:#181818;stroke-width:1"/><path d="M24.969 232.115q-.578.297-1.219.438-.64.156-1.344.156-2.5 0-3.828-1.64-1.312-1.657-1.312-4.782t1.312-4.781q1.328-1.656 3.828-1.656.703 0 1.344.156.656.156 1.219.453v2.719q-.625-.578-1.219-.844-.594-.281-1.219-.281-1.343 0-2.031 1.078-.688 1.062-.688 3.156 0 2.094.688 3.172.688 1.062 2.031 1.062.625 0 1.219-.265.594-.281 1.219-.86v2.72Z"/><text x="41" y="232.36" fill="#D9B8FF" font-family="Helvetica" font-size="17" textLength="284">aws_route53_resource_record_set</text><rect width="199" height="39.789" x="70.5" y="106.79" fill="#3D176E" rx="2.5" ry="2.5" style="stroke:#000d19;stroke-width:.5"/><circle cx="85.5" cy="126.684" r="11" fill="#ADD1B2" style="stroke:#181818;stroke-width:1"/><path d="M88.469 132.325q-.578.297-1.219.438-.64.156-1.344.156-2.5 0-3.828-1.64-1.312-1.657-1.312-4.782t1.312-4.781q1.328-1.656 3.828-1.656.703 0 1.344.156.656.156 1.219.453v2.719q-.625-.579-1.219-.844-.594-.281-1.219-.281-1.344 0-2.031 1.078-.688 1.062-.688 3.156 0 2.094.688 3.172.688 1.062 2.031 1.062.625 0 1.219-.265.594-.281 1.219-.86v2.72Z"/><text x="104.5" y="132.57" fill="#D9B8FF" font-family="Helvetica" font-size="17" textLength="157">aws_route53_zone</text><path fill="none" d="M170 47.22v53.31" style="stroke:#1a83af;stroke-width:2"/><path fill="#1A83AF" d="m170 105.41 4-9-4 4-4-4 4 9z" style="stroke:#1a83af;stroke-width:2"/><path fill="none" d="M170 147.01v53.31" style="stroke:#1a83af;stroke-width:2"/><path fill="#1A83AF" d="m170 205.2 4-9-4 4-4-4 4 9z" style="stroke:#1a83af;stroke-width:2"/></svg>
